X:1
T:Der Traum
T:Robert Schumann
T:Ludwig Uhland
T:Der Traum
T:Copyright © CPDL 2018 Please forward corrections &amp;c to RichardMix@hotmail.com
T:Copyright © CPDL 2018 Please forward corrections &amp;c to RichardMix@hotmail.com
C:Robert Schumann
Z:Ludwig Uhland
Z:Copyright © CPDL 2018
Z:Please forward corrections &c to RichardMix@hotmail.com
%%score [ ( 1 2 ) ( 3 4 ) ]
L:1/8
Q:1/4=120
M:4/4
K:Bb
V:1 treble nm="P1" snm="S."
V:2 treble 
V:3 bass nm="P2" snm="B."
V:4 bass 
V:1
!p!"^Langsam." G2 | [Gd]3 [Gd] [A^c]2 [A=e]2 | [Ad]4 [GB]2 [GB]2 | [Bd]3 [GB] [^FA]3 G | G6 G2 | %5
w: Im|schön- sten Gar- ten|wall- ten zwei|Buh- len Hnad in|Hand, zwei|
 [Gd]3 [Gd] [A^c]2 [_B=e][Be] | [Ad]4 [GB]2 [GB]2 | [Bd]2 [GB][GB] [^FA]3 G | G6 [^FA]2 | %9
w: blei- che kran- ke Ge-|stal- ten, sie|sa- ssen im Blu- men-|land. Sie|
 [GB]>D D4 G[^FA] | [GB]2 D2 z2 [DB]2 |"^rit.""^rit." [Fd]3 [FB] [FB]2 [GB][Gc] | %12
w: küss- ten sich auf die|Wan- gen, sie|küss- ten sich auf den|
 [Fd]2 [Fd]2 [Fd]2 [Fd][Fd] | [Gf]6 [Ge]2 | [Fe]2 [Fd]2 z2 [Fd]2 | [Gg]3 [Ge] [Fd]2 cc | %16
w: Mund, sie hiel- ten sich|fest um-|schlun- gen, sie|wur- den jung und ge-|
 B4 z2!pp! G2 | [Gd]3 [Gd] [A^c]2 [A=e]2 | [Ad]4 [GB]2 [GB]2 | [Bd]3 [GB] [^FA]3 G | G4 [=FG]4 | %21
w: sund. Zwei|Glöck- lein klan- gen|hel- le, der|Traum ver- schwand zur|Stund', sie|
 [EG]2 [EG][EG] [EG]3 [^FA] | [GB]2 [DG]2 [^CG]4 | [DG]3"^ritard." [DG] [=EG]2 [^FA]2 | %24
w: lag in der Klo- ster-|zel- le, er|fern in Thur- mes|
 !fermata![GB]6 x2 |] %25
w: Grund.|
V:2
 G2 | x8 | x8 | x8 | G4 x2 G2 | x8 | x8 | x8 | x8 | x8 | x8 | x8 | x8 | x8 | x8 | x6 [_EF][EF] | %16
 [DF]4 x4 | x8 | x8 | x8 | x8 | x8 | x8 | x8 | x8 |] %25
V:3
!p! G,2 | [B,D]3 [B,D] [A,=E]2 [G,^C]2 | [^F,D]4 [G,D]2 [G,D]2 | [D,D]3 [D,D] [D,=C]3 [G,B,] | %4
 [G,B,]6 G,2 | [B,D]3 [B,D] [A,=E]2 [G,^C][G,C] | [^F,D]4 [G,D]2 [G,D]2 | %7
 [D,D]2 [D,D][D,D] [D,=C]3 [G,B,] | [G,B,]6 [D,D]2 | [G,D]>[G,B,] [G,B,]4 [G,B,][D,D] | %10
 [G,D]2 [G,B,]2 z2 [B,D]2 | B,3 [B,D] [B,D]2 [B,E][B,E] | [B,D]2 B,2 B,2 B,B, | [E,B,]6 [E,B,]2 | %14
 [B,,B,]2 [B,,B,]2 z2 [B,,B,]2 | [E,B,]3 [E,B,] [F,B,]2 [F,A,][F,A,] | [B,,B,]4 z2!pp! G,2 | %17
 [B,D]3 [B,D] [A,=E]2 [G,^C]2 | [^F,D]4 [G,D]2 [G,D]2 | [D,D]3 [D,D] [D,C]3 [E,B,] | %20
 [E,B,]4 [D,=B,]4 | [C,C]2 [C,C][C,C] [C,C]3 [A,,C] | [G,,D]2 [G,,B,]2 [E,B,]4 | %23
 [D,B,]3"^ritard." [D,B,] [=C,B,]2 [A,,C]2 | !fermata![G,,D]6 x2 |] %25
V:4
 G,2 | x8 | x8 | x8 | x8 | x8 | x8 | x8 | x8 | x8 | x8 | x8 | x8 | x8 | x8 | x8 | x8 | x8 | x8 | %19
 x8 | x8 | x8 | x8 | x8 | x8 |] %25

